X:1
T:Music divine - Tomkins
T:James Gibb editions
T:#
%%score { 1 | 2 } 3 { 4 | 5 } 6
L:1/8
Q:1/4=100
M:2/2
K:F
V:1 treble nm="Soprano 1" snm="S"
V:2 treble 
V:3 treble nm="Alto" snm="A"
V:4 treble-8 nm="Tenor 1" snm="T"
V:5 treble-8 
V:6 bass nm="Bass" snm="B"
V:1
"^Music divine""^Thomas Tomkins\n(1572-1656)" z8 x4 | z8 | z8 | z8 | z8 | z8 | z8 |!mp! G6 A2 | %8
w: |||||||Mu- sic|
 =B4 c4- | x8 |[M:2/2] c4 =B4 | d8 | z8 | z8 | ^F6 G2 | A4 B4- | B4 A4 | G8 | z8 | z8 | z8 | z8 | %22
w: di- vine,||* di-|vine,|||mu- sic|di- vine,|* di-|vine,|||||
 z2!mf! A2 A3 G | ^F2 D2 d4 | z8 | z2 =B2 B3 A | ^G2 E2 e4 | z8 | z2 c4 d2 | e4 A2 =B2 | %30
w: pro- ceed- ing|from a- bove,||pro- ceed- ing|from a- bove,||from a-|bove, from a-|
 c4 z2!p! c2 | c3 c d2 c2 | =BG c4 B2 | c2 c4 B2 | A4 G2 E2 | ^F2 G2 G2 F2 | G3 G A2 G2- | %37
w: bove, Whose|sa- cred sub- ject|oft- en- times is|love, oft- en-|times, oft- en,|oft- en- times is|love, is love, oft\-|
 G2 c2 B2 G2 | A4!f! F4 | G6 G2 | G8 | z8 | z8 | z8 | B2 d4 c2 | (dcAB cBGA | BAFG AB) c2- | %47
w: * en- times is|love, In|this ap-|pears||||her heav'n- ly|har\- * * * * * * *|* * * * * * mo\-|
 c2 BA GF G2 | A3 A G4 | G8 | G8 | G2 c4 =B2 | (cBGA BAFG | AGEF G2) ^F2 | G4 z2!mp! G2 | c6 c2 | %56
w: |ny, her har-|mo-|ny,|her heav'n- ly|har\- * * * * * * *|* * * * * mo-|ny, Where|tune- ful|
 d6 A2 | A6 A2 | A4 G4 | z2 G4 G2 | G (A =B2) c2 C2 | G8 | c6 B2 | A2 G2 F4 | f6 (e2 | %65
w: con- cords,|tune- ful|con- cords,|sweet- ly|do a\- * gree, a-|gree,|sweet- ly|do a- gree,|sweet- ly|
 d2) c2 B2 d2 | c2 G2 z4 | z4 c4- | c4 d4 | c8 | z8 | z8 | z8 | z4 z2!mf! d2 | d2 d2 c4- | %75
w: * a- gree, do|a- gree,|do|* a-|gree.||||And|yet in this|
 c2 =B2 c3 G | _B4 A4 | D4 z2 C2 | F3 E F2 D2 | DD A4 G2 | F2 E4 D2 | ^C2 (D4 C2) | D4 z4 | %83
w: * her slan- der|is un-|just, her|slan- der is un-|just, her slan- der|is un- just,|is un\- *|just,|
 z4 z2!f! d2 | c2 A2 (BABc | d4) d2 c2- | c2 B2 A3 A | A4 z4 | z8 | z8 | z8 | z8 | z8 | %93
w: To|call that love, * * *|* which is|* in- deed but|lust,||||||
 z4!mp! F2 B2- | B2 A2 B4 | F4 A3 A | G6 G2 | E2!f! G2 F2 D2 | (_EDEF G2) A2 | ^F2 (G4 F2) | %100
w: to call|* that love|which is in-|deed but|lust, to call that|love * * * * which|is but *|
 G2 d2 c4- | c4 B4 | A6"^." A2 | !fermata!=B8 |] %104
w: lust, which is|* in-|deed but|lust.|
V:2
 z8 x4 |!mp! G6 A2 | =B4 c4- | c4 =B4 | d8 | z8 | z8 | z8 | z8 | x8 |[M:2/2] z8 | ^F6 G2 | A4 B4- | %13
w: |Mu- sic|di- vine,|* di-|vine,|||||||mu- sic|di- vine,|
 B4 A4 | d8 | z8 | z8 | z2 G4 A2 | =B4 c4- | c4 =B4 | A8- | A4 B4 | A4 z2!mf! A2 | A3 G ^F2 D2 | %24
w: * di-|vine,|||mu- sic|di- vine,|* di-|vine,|* di-|vine, pro-|ceed- ing from a-|
 d4 z4 | z4 z2 =B2 | =B3 A ^G2 E2 | e4 z4 | z2 A4 =B2 | c2 c4 d2 | e4 z4 | z8 | z4 z2!p! d2 | %33
w: bove,|pro-|ceed- ing from a-|bove,|from a-|bove, from a-|bove,||Whose|
 e3 e f2 d2 | ^c2 d2 d2 c2 | d4 z4 | =B2 c2 c2 B2 | c4 z4 | z4 z2 x2 | B6 B2 | B8 | z8 | z8 | z8 | %44
w: sa- cred sub- ject|oft- en- times is|love,|oft- en- times is|love,||this ap-|pears||||
 F2 B4 A2 | BAFG AGEF | GFDE FECD | EC F3 F E2 | F3 E D4 | z8 | z8 | c2 _e4 d2 | _edBc dcAB | %53
w: her heav'n- ly|har\- * * * * * * *||* * * mo- ny,|har- mo- ny,|||her heav'n- ly|har\- * * * * * * *|
 cBGA Bc A2 | =B4!mp! G4 | A6 A2 | B4 A4 | ^c4 e4 | d4 =B4 | z2 c4 c2 | c2 d2 e4 | z4 c4- | %62
w: * * * * * * mo-|ny, Where|tune- ful|con- cords.|tune- ful|con- cords|sweet- ly|do a- gree,|sweet\-|
 c2 B2 A2 G2 | F4 f4- | f2 e2 d2 c2 | B8 | z4 _e4- | e2 d2 c2 B2 | A4 B4 | A8 | z8 | z8 | z8 | %73
w: * ly do a-|gree, sweet\-|* ly do a-|gree,|sweet\-|* ly do a-|gree, a-|gree.||||
 z2!mf! B2 B2 B2 | A6 G2 | A2 F2 G2 (G2- | G2 ^FE) F4 | G2 d4 c2 | B2 A4 G2 | z4 z2 G2 | %80
w: And yet in|this her|slan- der is un\-|* * * just,|her slan- der|is un- just,|her|
 c3 =B c2 A2 | A8 | z8 | z8 | z8 | z2!f! B4 A2- | A2 (GF) (ED) E2 | ^F4 z4 | z4 z2 c2 | %89
w: slan- der is un-|just,||||which is|* in\- * deed * but|lust,|to|
 B2 G2 B2 A2- | A2 F2 A2 G2 | ^F2 (G4 F2) |"^dim." G4 z4 | z4 z2!mp! f2 | _e2 c2 (e2 d2- | %95
w: call that love, love|* which is in-|deed but *|lust,|to|call that love *|
 d2) B2 d2 c2 | =B2 (c4 B2) | c4 z4 | z8 | z2!f! D2 d3 c | B3 c A4- | A2 G2 G4- | G4 ^F4 | %103
w: * which is in-|deed but *|lust,||to call that|love which is|* in- deed|* but|
 !fermata!G8 |] %104
w: lust.|
V:3
 z8 x4 | z8 | z8 | z8 |!mp! =B,6 C2 | D4 (_E2 F2 | G8) | =B,6 C2 | D4 _E4- | x8 |[M:2/2] E4 D4 | %11
w: ||||Mu- sic|di- vine, *||mu- sic|di- vine,||* di-|
 D8 | D8 | D8 | z8 | z4 (G,2 A,2 | B,2 C2) D4- | D2 C2 =B,4- | B,4 E4 | E8 | ^C6 D2 | E4 F4- | %22
w: vine,|di-|vine,||di\- *|* * vine,~|* di- vine,|* di-|vine,|mu- sic|di- vine,|
 F4 E4 | D4 z2!mf! D2 | D3 C =B,2 G,2 | G4 z4 | z4 z2 E2 | E3 D ^C2 A,2 | E4 EC G2 | z8 | %30
w: * di-|vine, pro-|ceed- ing from a-|bove,|pro-|ceed- ing from a-|bove, from a- bove,||
 z4 z2!p! A2 | A3 A B2 A2 | G3 G F2 D2 | C4 z4 | z8 | D3 D E2 D2- | D2 G,2 z4 | E2 F2 F2 E2 | %38
w: Whose|sa- cred sub- ject|oft- en- times is|love,||oft- en- times is|* love,|oft- en- times is|
 F4!f! C4 | _E6 E2 | _E6 B,2 | F8 | z4 C2 D2 | C2 D4 C2 | B,4 z4 | z8 | z8 | z8 | z4 z2 D2 | %49
w: love, In|this ap-|pears, ap-|pears|her heav'n-|ly har- mo-|ny,||||her|
 _E4 D2 C2 | =B,2 C2 C2 B,2 | C2 G2 G4 | G4 F4 | E4 D4- | D4!mp! C4 | C6 C2 | B,4 F,4 | A,6 A,2 | %58
w: heav'n- ly, her|heav'n- ly har- mo-|ny, her heav'n-|ly har-|mo- ny,|* Where|tune- ful|con- cords,|tune- ful|
 A,4 D4 | z2 C4 C2 | G6 F2 | E2 D2 C4 | C8 | C8 | z4 F4- | F2 E2 D2 F2 | E4 G4- | G2 F2 E2 E2 | %68
w: con- cords|sweet- ly|sweet- ly|do a- gree,|a-|gree,|sweet\-|* ly do a-|gree, sweet\-|* ly do a-|
 F8- | F8 | z8 | z8 | z8 | z2!mf! G2 G2 G2 | F6 E2 | F2 D2 _E2 C2 | D8 | z8 | z4 z2 D2 | %79
w: gree.|||||And yet in|this her|slan- der is un-|just,||her|
 F3 E F2 D2 | C4 A,4- | A,4 A,4 | ^F,4 z4 | z4 z2!f! D2 | E2 ^F2 (GFGA | B4) F4 | z8 | %87
w: slan- der is un-|just, is|* un-|just,|To|call that love, * * *|* love,||
 z2 A,2 =B,2 ^C2 | (D^CDE"^." F4- | F2 E2 F4- | F4 E4 | D6 D2 | =B,3!mp! D C2 A,2 | B,A,B,C D4) | %94
w: to call that|love, * * * *|* which is|* in-|deed but|lust, to call that|love * * * *|
 z4 z2 G2 | F2 D2 F4- | F2 (_E2 D4) | C4 z4 | z2!f! G2 C3 B, | (A,2 G,2) A,4 | G,4 C4 | D6 D2 | %102
w: which|is in- deed|* but *|lust,|which is in-|deed * but|lust, which|is in-|
 D4 D4 | !fermata!D8 |] %104
w: deed but|lust.|
V:4
 z12 |!mp! =B6 c2 | d4 _e4- | e4 d4- | d4 g4- | g4 (c2 d2 | _e2 c2) d4- | d4 G4 | G8- | %9
w: |Mu- sic|di- vine,|* di\-|* vine,|* di\- *|* * vine,|* O|di\-|
[M:2/2][K:treble-8] G8 | A8 | z4 (G2 A2 | B2 c2) d4 | d8 | d8 | d6 c2 | =B6 A2 | ^G4 A4- | A4 ^G4 | %19
w: |vine,|di\- *|* * vine,|di-|vine,|mu- sic,|mu- sic|di- vine,|* di-|
 e8- | e4 d4 | A6 A2 | D8 | z2!mf! d2 d3"^I" c | =B2 G2 g4 | z8 | z2 e2 e3 d | ^cA e2 z2 g2- | %28
w: vine,|* di-|vine, di-|vine,|pro- ceed- ing|from a- bove,||pro- ceed- ing|from a- bove, a\-|
 g2 a2 ec g2- | g2!p! c2 c3 c | f2 c2 B2 f2 | d2 e2 d3 d | g4 a2 (gf) | e2 f2 e4 | z8 | %35
w: * bove, from a- bove,|* Whose sa- cred|sub- ject, sub- ject|oft- en- times is|love, oft- en\- *|times is love,||
 d2 e2 d3 d | c4 z4 | z4 z2!f! f2 | B6 B2 | G8 | z2 d2 f4- | f2 f2 f4 | f4 f4 | z2 B2 f4 | %44
w: oft- en- times is|love,|In|this ap-|pears|her heav'n\-|* ly har-|mo- ny,|her heav'n-|
 B2 d2 A2 c2 | G2 (B2 FGAB) | c8 | F4 z4 | z4 G2 _e2 | d2 _e4 d2 | c4 z4 | z8 | z8 | z4!mp! e4 | %54
w: ly har- mo- ny,|her har\- * * * *|mo-|ny|her heav'n-|ly har- mo-|ny,|||Where|
 f6 f2 | f4 f4 | e6 e2 | ^f4 g4 | z2 e4 e2 | e2 d2 c4- | c4 G4 | F8 | z4 c4 | d8- | d8 | z4 G4- | %66
w: tune- ful|con- cords,|tune- ful|con- cords|sweet- ly|do a- gree,|* a-|gree,|a-|gree,||sweet\-|
 G4 G4 | c4 B4 | c4 z2!mf! c2 | c2 c2 B4- | B2 A2 B2 G2 | (c3 B) A4 | =B2 G2 D4 | z8 | z8 | z8 | %76
w: * ly|do a-|gree. And|yet in this|* her slan- der|is * un-|just, un- just,||||
 z4 z2 G2 | d3 c d2 B2 | A4 z4 | z8 | z8 | z2!f! d2 c2 A2 | (BABc d4) | z8 | z4 z2 f2 | d6 ^c2 | %86
w: her|slan- der is un-|just,|||To call that|love * * * *||which|is but|
 d3 a g2 e2 | (fefg ag f2) | z4 z2 d2 | c2 A2 c3 B | A2 G2 A3 A |"^dim." G4 z4 | z8 | z8 | %94
w: lust, to call that|love, * * * * * *|to|call that love, which|is in- deed but|lust,|||
!mp! d2 f4 _e2 | d2 c2 d2 G2 | G4 z4 | z4!f! C2 c2- | c2 B2 A3 A | d4 A4- | A4 (B2 G2) | A6 A2 | %102
w: which is in-|deed, in- deed but|lust,|which is|* in- deed but|lust, is|* in\- *|deed but|
 !fermata!G8 | x8 |] %104
w: lust.||
V:5
!mp! G8- x4 | G4 G4 | G8 | G6 G2 | G8- | G8 | G8 | z8 | z8 |[M:2/2][K:treble-8] z8 | z8 | z8 | z8 | %13
w: Mu\-|* sic|di-|vine, di-|vine,|||||||||
 D6 E2 | ^F4 G4- | G4 ^F4 | G6 F2 | E8- | E8 | z2 A4 G2 | E2 A2 z2 (DE | F3 G) A4 | A8 | %23
w: mu- sic|di- vine,|* di-|vine, di-|vine,||mu- sic|di- vine, di\- *|* * vine,|di-|
 G4 z2!mf! d2 | d3 c =B2 G2 | e4 =B3 B | A4 z4 | z2 A4 G2 | c4 z4 | z4 z2!p! f2 | f8 | z4 z2 G2 | %32
w: vine, pro-|ceed- ing from a-|bove, from a-|bove,|from a-|bove,|a-|bove,|Whose|
 G3 c F2 G2 | A2 (GF) G2 A2 | A2 B2 A4 | G2 (FE) F2 G2 | G2 (A2 G4) | F4!f! A4 | G6 G2 | B6 B2 | %40
w: sa- cred sub- ject|oft- en\- * times is|love, is love,|oft- en\- * times is|love, is *|love, In|this ap-|pears her|
 d6 c2 | (dcAB c2 B2 | A2 B4) A2 | F8 | z8 | z8 | z4 C2 c2- | c2 F2 G3 G | C4 z4 | z8 | z4 z2 G2 | %51
w: heav'n- ly|har\- * * * * *|* * mo-|ny,|||her heav'n\-|* ly har- mo-|ny,||her|
 G4 (DE) (F2 | C4 D3) A | G4 z2!mp! G2 | F6 F2 | F6 D2 | E6 E2 | A2 D2 z4 | z4 G4- | G2 G2 G4- | %60
w: heaven- ly * har\-|* * mo-|ny, Where|tune- ful|con- cords,|tune- ful|con- cords|sweet\-|* ly, sweet\-|
 G2 F2 E2 D2 | C4 c4- | c2 B2 A2 G2 | F8 | B6 A2 | G3 F _E3 F | (G8 | F8) | z2!mf! A2 A2 A2 | %69
w: * ly do a-|gree, sweet\-|* ly do a-|gree,|sweet- ly|do a- gree, a-|gree.||And yet in|
 G6 F2 | G2 E2 F2 D2 | (EF G4) ^F2 | G8 | z8 | z8 | z4 z2 A2 | B3 A B2 G2 | F4 z4 | z4 z2 D2 | %79
w: this her|slan- der, slan- der|is * * un-|just,|||her|slan- der is un-|just,|her|
 A3 G A2 F2 | E6 E2 | D4 z4 | z4 z2!f! B2 | A2 d2 G4- | G4 z4 | z8 | z8 | z4 z2 A2 | %88
w: slan- der is un-|just, un-|just,|To|call~that * love,||||to|
"^\""^i" G3 G F4 | z4 C2 c2- | c2 B2 AA D2 | z2!mp! D2 E2 ^F2 | (G^FGA B3) d | c3 c B4 | z8 | z8 | %96
w: call that love,|which is|* in- deed but lust,|to call that|love * * * * which|is but lust,|||
 z2!f! G2 A2 =B2 | (c=Bcd _e4) | d4 z2 D2- | D2 G2 E4 | D8- | D4 D4 | !fermata!D8 | x8 |] %104
w: to call that|love, * * * *|love which|* is in-|deed|* but|lust.||
V:6
 z8 x4 | z8 | z8 | z8 |!mp! G,,6 A,,2 | =B,,4 C,4- | C,4 =B,,4 | G,,8 | z8 | x8 |[M:2/2] z8 | %11
w: ||||Mu- sic|di- vine,|* di-|vine,||||
 D,6 E,2 | ^F,4 G,4- | G,4 ^F,4 | A,8 | z8 | z8 | z8 | z8 | z8 | A,,6 =B,,2 | ^C,4 D,4- | %22
w: mu- sic|di- vine,|* di-|vine,||||||mu- sic|di- vine,|
 D,2 D,2 ^C,4 | z2!mf! D,2 D,3 C, | =B,,2 G,,2"^," G,4- | G,2 G,2 G,4 | z2 E,2 E,3 D, | %27
w: * di- vine,|pro- ceed- ing|from a- bove,|* a- bove,|pro- ceed- ing|
 ^C,2 A,,2 A,4 | z8 | z2 A,4 G,2 | C4 z2!p! F,2 | F,3 F, B,2 F,2 | G,2 (F,E,) F,2 G,2 | C,4 z4 | %34
w: from a- bove,||from a-|bove, Whose|sa- cred sub- ject|oft- en\- * times is|love,|
 z8 | D,2 (C,B,,) C,2 D,2 | G,,4 z4 | C,2 (B,,A,,) B,,2 C,2 | F,,4!f! F,4 | _E,6 E,2 | _E,8 | %41
w: |oft- en\- * times is|love,|oft- en\- * times is|love, In|this ap-|pears|
 B,,2 B,4 A,2 | (B,A,F,G, A,F,D,E, | F,D,B,,C, D,E,) F,2 | B,,4 z4 | z8 | z8 | z8 | F,2 C4 =B,2 | %49
w: her heav'n- ly|har\- * * * * * * *|* * * * * * mo-|ny,||||her heav'n- ly|
 (CB,G,A, B,G,_E,F, | G,_E,C,D, E,F,) G,2 | C,3 C, G,4 | C,2 _E,2 B,,2 D,2 | A,,2 C,2 G,,2 D,2 | %54
w: har\- * * * * * * *|* * * * * * mo-|ny, her heav'n-|ly, her heav'n- ly,|heav'n- ly har- mo-|
 G,,4!mp! C,4 | F,,6 F,,2 | B,,4 D,4 | A,,4 ^C,4 | D,4 G,,4 | z2 C,4 C,2 | C,2 G,2 C,4 | C,6 B,,2 | %62
w: ny, Where|tune- ful|con- cords,|tune- ful|con- cords,|sweet- ly|do a- gree,|sweet- ly|
 A,,2 G,,2 F,,4 | F,6 E,2 | D,2 C,2 B,,4- | B,,4 B,,4 | C,6 G,,2 | =B,,4 C,4 | F,,4 B,,4 | %69
w: do a- gree,|sweet- ly|do a- gree,|* thus|sweet- ly|do a-|gree, a-|
 F,,2!mf! F,2 F,2 F,2 | _E,6 D,2 | _E,2 C,2 D,2 B,,2 | A,,4 D,4 | G,,8 | z8 | z8 | z4 z2 D,2 | %77
w: gree. And yet in|this her|slan- der, slan- der|is un-|just,|||her|
 G,3 F, G,2 _E,2 | D,6 G,,2 | D,3 C, D,2 B,,2 | A,,8- | A,,8 | z2!f! D,2 E,2 ^F,2 | %83
w: slan- der is un-|just, her|slan- der is un-|just,||To call that|
 (G,^F,G,A, B,4) | z8 | z4 B,2 F,2- | F,2 G,2 A,2 A,,2 | D,4 z4 | z4 z2 A,,2 | B,,2 C,2 (D,C,D,E, | %90
w: love * * * *||which is|* in- deed but|lust,|to|call that love, * * *|
 F,4) C,4 | D,6 D,2 |"^dim." G,,4 z4 | z4 z2!mp! D,2 | _E,2 F,2 (G,F,G,A, | B,4) F,4 | G,6 G,2 | %97
w: * which|is but|lust,|to|call that love * * *|* which|is but|
 C,4 z4 | z4 z2!f! C,2 | D,6 D,2 | G,,4 A,,4 | ^F,,4 G,,4 | D,6 D,2 | !fermata!G,,8 |] %104
w: lust,|which|is but|lust, which|is in-|deed but|lust.|

